X:1
T:Title
%%score { ( 1 3 ) | ( 2 4 ) }
L:1/8
M:2/4
K:Eb
V:1 treble nm="Grand Piano"
V:3 treble 
V:2 bass 
V:4 bass 
V:1
 z2[Q:1/4=100] [G,E]2 | [B,EG]2 [CEG]2 | [CEA]2 [CFA]2 | [B,FB]4 |[M:5/8] [EB]3 [B,EB]2 | %5
[M:2/4] [B,FB]2 [B,EG]2 | [A,CA]2 [A,DF]2 |[M:3/8] [G,B,E]3 |[M:1/4] [G,E]2 | %9
[M:2/4] [B,EG]2 [CEG]2 | [CEA]2 [CFA]2 | [B,FB]4 |[M:5/8] [EB]3 [EB]2 |[M:2/4] [FB]2 [EG]2 | %14
 [CA]2 [DF]2 |[M:3/8] [B,E]3 |[M:1/4] [EB]2 |[M:2/4] [CEA]2 [B,EG]2 | [B,DF]2 [B,DG]2 | %19
 [G,CE]2 [CF]2 |[M:5/8] [=B,DG]3 [_B,EB]2 |[M:2/4] [Ec]2 [EB]2 | [A,CA]2 [CG]2 | G2 z2 | %24
[M:5/8] [C=EG]3 [B,_EB]2 |[M:2/4] [B,FB]2 [B,EG]2 | [A,CA]2 [A,DF]2 | %27
[M:11/8] [G,B,E]3 z z z z z z z2 |[M:2/4] [A,CE]4 | [G,B,E]4 |] %30
V:2
 z2 E,2 | E,2 C,2 | A,,2 F,,2 | D,4 |[M:5/8] [E,G,]3 G,2 |[M:2/4] D,2 E,2 | F,2 B,,2 |[M:3/8] E,3 | %8
[M:1/4] E,2 |[M:2/4] E,2 C,2 | A,,2 F,,2 | D,4 |[M:5/8] [E,G,]3 [G,B,]2 |[M:2/4] [D,B,]2 [E,B,]2 | %14
 [F,A,]2 [B,,A,]2 |[M:3/8] [E,G,]3 |[M:1/4] [E,G,]2 |[M:2/4] A,,2 E,2 | B,,2 G,,2 | C,2 A,,2 | %20
[M:5/8] G,,3 G,,2 |[M:2/4] [A,,A,]2 [E,G,]2 | F,2 =E,2 | z2 F2 |[M:5/8] C,3 G,2 |[M:2/4] D,2 E,2 | %26
 F,2 B,,2 |[M:11/8] E,3 z z z z z z z2 |[M:2/4] A,,4 | E,4 |] %30
V:3
 x4 | x4 | x4 | x4 |[M:5/8] x5 |[M:2/4] x4 | x4 |[M:3/8] x3 |[M:1/4] x2 |[M:2/4] x4 | x4 | x4 | %12
[M:5/8] x5 |[M:2/4] x4 | x4 |[M:3/8] x3 |[M:1/4] x2 |[M:2/4] x4 | x4 | x4 |[M:5/8] x5 |[M:2/4] x4 | %22
 x4 | [CA]4 |[M:5/8] x5 |[M:2/4] x4 | x4 |[M:11/8] x11 |[M:2/4] x4 | x4 |] %30
V:4
 x4 | x4 | x4 | x4 |[M:5/8] x5 |[M:2/4] x4 | x4 |[M:3/8] x3 |[M:1/4] x2 |[M:2/4] x4 | x4 | x4 | %12
[M:5/8] x5 |[M:2/4] x4 | x4 |[M:3/8] x3 |[M:1/4] x2 |[M:2/4] x4 | x4 | x4 |[M:5/8] x5 |[M:2/4] x4 | %22
 x4 | F,4 |[M:5/8] x5 |[M:2/4] x4 | x4 |[M:11/8] x11 |[M:2/4] x4 | x4 |] %30

